X:36
T:Wise Dave's Farewell to Devon
M:4/4
L:1/8
R:Slow Reel
C:Gris Sanderson
Q:300
N:I wrote this reel for a friend when he left to do the traditional
N:music course in Newcastle.
K:Em
E2ED EFAB-|BABde2dB|d2BADAF2-|FDFA ABAF|
BEFA dFAB|eABe- efdB|deD2-DEFA|ABAF BEED:|
|:E2e2gfde-|eEFA BAFE|FAD2faef|d2DE DB,A,B,|
E2e2gfde|BdAF DEFA|BAD2-DEFA|dBAF BEED:|
